symbols/web/no_meeting_room/materialsymbolsrounded/no_meeting_room_wght700_24px.svg

<svg xmlns="http://www.w3.org/2000/svg" height="24" width="24"><path d="m20.575 17.35-3.15-3.15V6.3h-2v5.9l-3.15-3.15V5.3h-3.75l-3.15-3.15h8.475q.475 0 .863.262.387.263.587.738H19q.65 0 1.113.462.462.463.462 1.113Zm-.7 5.5-4.45-4.475v1.9q0 .65-.462 1.113-.463.462-1.113.462H2.625q-.65 0-1.112-.462-.463-.463-.463-1.113 0-.65.463-1.112.462-.463 1.112-.463h.8V6.375L1.15 4.125Q.8 3.775.8 3.287q0-.487.35-.837t.838-.35q.487 0 .837.35L21.55 21.175q.35.35.35.837 0 .488-.35.838t-.837.35q-.488 0-.838-.35Zm-13.3-4.15h5.7v-3.475l-5.7-5.7ZM10.4 7.175Zm-.975 5.2Z"/></svg>

<svg xmlns="http://www.w3.org/2000/svg" height="24" width="24"><path d="M20.575 17.35 17.425 14.2V6.3H15.425V12.2L12.275 9.05V5.3H8.525L5.375 2.15H13.85Q14.325 2.15 14.713 2.412Q15.1 2.675 15.3 3.15H19Q19.65 3.15 20.113 3.612Q20.575 4.075 20.575 4.725ZM19.875 22.85 15.425 18.375V20.275Q15.425 20.925 14.963 21.388Q14.5 21.85 13.85 21.85H2.625Q1.975 21.85 1.513 21.388Q1.05 20.925 1.05 20.275Q1.05 19.625 1.513 19.163Q1.975 18.7 2.625 18.7H3.425V6.375L1.15 4.125Q0.8 3.775 0.8 3.287Q0.8 2.8 1.15 2.45Q1.5 2.1 1.988 2.1Q2.475 2.1 2.825 2.45L21.55 21.175Q21.9 21.525 21.9 22.012Q21.9 22.5 21.55 22.85Q21.2 23.2 20.713 23.2Q20.225 23.2 19.875 22.85ZM6.575 18.7H12.275V15.225L6.575 9.525ZM10.4 7.175ZM9.425 12.375Z"/></svg>
